app/img/ob-player--up.svg

<?xml version="1.0" encoding="utf-8"?>
<!-- Generator: Adobe Illustrator 17.1.0, SVG Export Plug-In . SVG Version: 6.00 Build 0)  -->
<!DOCTYPE svg PUBLIC "-//W3C//DTD SVG 1.1//EN" "http://www.w3.org/Graphics/SVG/1.1/DTD/svg11.dtd">
<svg version="1.1" id="Layer_1" xmlns:sketch="http://www.bohemiancoding.com/sketch/ns"
	 xmlns="http://www.w3.org/2000/svg" xmlns:xlink="http://www.w3.org/1999/xlink" x="0px" y="0px" viewBox="0 0 18 18"
	 enable-background="new 0 0 18 18" xml:space="preserve">
<title></title>
<desc></desc>
<g id="Page-1">
	<g id="Icons-AV" transform="translate(-211.000000, -170.000000)">
		<g id="volume-up" transform="translate(211.000000, 170.000000)">
			<path id="Shape" fill="#FFFFFF" d="M0,6v6h4l5,5V1L4,6H0L0,6z M13.5,9c0-1.8-1-3.3-2.5-4v8C12.5,12.3,13.5,10.8,13.5,9L13.5,9z
				 M11,0.2v2.1c2.9,0.9,5,3.5,5,6.7s-2.1,5.8-5,6.7v2.1c4-0.9,7-4.5,7-8.8S15,1.1,11,0.2L11,0.2z"/>
		</g>
	</g>
</g>
</svg>

<?xml version="1.0" ?><svg height="18px" version="1.1" viewBox="0 0 18 18" width="18px" xmlns="http://www.w3.org/2000/svg" xmlns:sketch="http://www.bohemiancoding.com/sketch/ns" xmlns:xlink="http://www.w3.org/1999/xlink"><title/><desc/><defs/><g fill="none" fill-rule="evenodd" id="Page-1" stroke="none" stroke-width="1"><g fill="#000000" id="Icons-AV" transform="translate(-211.000000, -170.000000)"><g id="volume-up" transform="translate(211.000000, 170.000000)"><path d="M0,6 L0,12 L4,12 L9,17 L9,1 L4,6 L0,6 L0,6 Z M13.5,9 C13.5,7.2 12.5,5.7 11,5 L11,13 C12.5,12.3 13.5,10.8 13.5,9 L13.5,9 Z M11,0.2 L11,2.3 C13.9,3.2 16,5.8 16,9 C16,12.2 13.9,14.8 11,15.7 L11,17.8 C15,16.9 18,13.3 18,9 C18,4.7 15,1.1 11,0.2 L11,0.2 Z" id="Shape"/></g></g></g></svg>
